X:660
T:Mr. Donaldson
R:Strathspey
B:The Athole Collection
M:C
L:1/8
K:B_
D|~B,2 B>F B>cd>c|B>GF>D C>B,C>D|~B,2 B>F B>cd>c|
B>GF>D B,/B,/B, B:|
d|f>gf>d B>cd>B|(3ege (3dfd c>Bc>d|f>gf>d B>cd>c|B>GF>D B,/B,/B B>d|
f>gf>d B>cd>B|(3ege (3dfd c>Bc>d|B>Fd>B f>db>g|f>dc>d B/B/B ~B||

